images/init1.svg

<svg width="40" height="40" viewBox="0 0 40 40" fill="none" xmlns="http://www.w3.org/2000/svg">
<circle cx="20" cy="20" r="20" fill="#F0F5FF"/>
<path d="M26.75 14.0001H30.0575L26 9.94263V13.2501C26 13.449 26.079 13.6398 26.2197 13.7805C26.3603 13.9211 26.5511 14.0001 26.75 14.0001Z" fill="#BDD0EA"/>
<path d="M26.75 15.5C26.1533 15.5 25.581 15.2629 25.159 14.841C24.7371 14.419 24.5 13.8467 24.5 13.25V9.5H16.25C15.6533 9.5 15.081 9.73705 14.659 10.159C14.2371 10.581 14 11.1533 14 11.75V14C15.1517 14.0027 16.2782 14.3368 17.2451 14.9624C18.212 15.588 18.9785 16.4787 19.453 17.528C19.9274 18.5774 20.0899 19.7412 19.9209 20.8804C19.7519 22.0195 19.2587 23.086 18.5 23.9525V29.75C18.5009 30.0061 18.4552 30.2603 18.365 30.5H28.25C28.8467 30.5 29.419 30.2629 29.841 29.841C30.2629 29.419 30.5 28.8467 30.5 28.25V15.5H26.75ZM19.25 14.75C19.25 14.5511 19.329 14.3603 19.4697 14.2197C19.6103 14.079 19.8011 14 20 14H22.25C22.4489 14 22.6397 14.079 22.7803 14.2197C22.921 14.3603 23 14.5511 23 14.75C23 14.9489 22.921 15.1397 22.7803 15.2803C22.6397 15.421 22.4489 15.5 22.25 15.5H20C19.8011 15.5 19.6103 15.421 19.4697 15.2803C19.329 15.1397 19.25 14.9489 19.25 14.75ZM26.75 26.75H20.75C20.5511 26.75 20.3603 26.671 20.2197 26.5303C20.079 26.3897 20 26.1989 20 26C20 25.8011 20.079 25.6103 20.2197 25.4697C20.3603 25.329 20.5511 25.25 20.75 25.25H26.75C26.9489 25.25 27.1397 25.329 27.2803 25.4697C27.421 25.6103 27.5 25.8011 27.5 26C27.5 26.1989 27.421 26.3897 27.2803 26.5303C27.1397 26.671 26.9489 26.75 26.75 26.75ZM26.75 23H22.25C22.0511 23 21.8603 22.921 21.7197 22.7803C21.579 22.6397 21.5 22.4489 21.5 22.25C21.5 22.0511 21.579 21.8603 21.7197 21.7197C21.8603 21.579 22.0511 21.5 22.25 21.5H26.75C26.9489 21.5 27.1397 21.579 27.2803 21.7197C27.421 21.8603 27.5 22.0511 27.5 22.25C27.5 22.4489 27.421 22.6397 27.2803 22.7803C27.1397 22.921 26.9489 23 26.75 23ZM26.75 19.25H22.25C22.0511 19.25 21.8603 19.171 21.7197 19.0303C21.579 18.8897 21.5 18.6989 21.5 18.5C21.5 18.3011 21.579 18.1103 21.7197 17.9697C21.8603 17.829 22.0511 17.75 22.25 17.75H26.75C26.9489 17.75 27.1397 17.829 27.2803 17.9697C27.421 18.1103 27.5 18.3011 27.5 18.5C27.5 18.6989 27.421 18.8897 27.2803 19.0303C27.1397 19.171 26.9489 19.25 26.75 19.25Z" fill="#BDD0EA"/>
<path d="M11 25.1899V29.7499C11.0007 29.898 11.0453 30.0425 11.128 30.1653C11.2108 30.2881 11.328 30.3837 11.465 30.4399C11.6016 30.4974 11.7521 30.5131 11.8976 30.485C12.0431 30.457 12.177 30.3865 12.2825 30.2824L14 28.5574L15.7175 30.2824C15.7876 30.352 15.8707 30.4069 15.9621 30.4443C16.0534 30.4816 16.1513 30.5005 16.25 30.4999C16.3484 30.5025 16.446 30.4819 16.535 30.4399C16.672 30.3837 16.7892 30.2881 16.872 30.1653C16.9547 30.0425 16.9993 29.898 17 29.7499V25.1899C16.0891 25.7202 15.054 25.9996 14 25.9996C12.946 25.9996 11.9109 25.7202 11 25.1899Z" fill="#BDD0EA"/>
<path d="M14 24.5C16.4853 24.5 18.5 22.4853 18.5 20C18.5 17.5147 16.4853 15.5 14 15.5C11.5147 15.5 9.5 17.5147 9.5 20C9.5 22.4853 11.5147 24.5 14 24.5Z" fill="#BDD0EA"/>
</svg>

<svg width="40" height="40" fill="none" xmlns="http://www.w3.org/2000/svg"><circle cx="20" cy="20" r="20" fill="#F0F5FF"/><path d="M26.75 14h3.308L26 9.943v3.307a.75.75 0 00.75.75z" fill="#BDD0EA"/><path d="M26.75 15.5a2.25 2.25 0 01-2.25-2.25V9.5h-8.25A2.25 2.25 0 0014 11.75V14a6 6 0 014.5 9.953v5.797c0 .256-.045.51-.135.75h9.885a2.25 2.25 0 002.25-2.25V15.5h-3.75zm-7.5-.75A.75.75 0 0120 14h2.25a.75.75 0 110 1.5H20a.75.75 0 01-.75-.75zm7.5 12h-6a.75.75 0 110-1.5h6a.75.75 0 110 1.5zm0-3.75h-4.5a.75.75 0 110-1.5h4.5a.75.75 0 110 1.5zm0-3.75h-4.5a.75.75 0 110-1.5h4.5a.75.75 0 110 1.5z" fill="#BDD0EA"/><path d="M11 25.19v4.56a.75.75 0 00.465.69.749.749 0 00.818-.158L14 28.557l1.717 1.725a.75.75 0 001.155-.117.75.75 0 00.128-.415v-4.56a5.963 5.963 0 01-6 0zm3-.69a4.5 4.5 0 100-9 4.5 4.5 0 000 9z" fill="#BDD0EA"/></svg>
